X: 1569
T: Halfway House, The
R:hornpipe
B:O'Neill's 1569
Z:Transcribed by Michael Hogan
M:C
L:1/8
K:A
(3EFG | ABcA BGAF | Ecce fefg | agae faec | dBcA BFEF |
ABcA BGAF | Ecce fefg | agae faed | cABc A2 :|
|: E2 (GB) BEGB | A2 (cA) eAce | B2 (df) fBdf | e2 (ge) befg |
agae (3fga ec | defg a2 (ga) | bgeg agaf | ecBc A2 :||


